X:3
T:The Curfew
R:reel
C:Fabien Guiloineau
M:4/4
K:D
DE|:~F2FB AFBA|AFEF ~D2DE|F~A2A BAFD|EFED ~E2DE|F~A2A ~B2dB|AdBA ~F2DE|~F2FG FEDE|1 FDB,A,~D2DE:|2 FDB,A,~D2de| \
|:~f2fa fede|fedB ~d2dB|Ad2d edfd|afed ~e2de|~f2fa fede|fedB ~d2dB|A~F2F AFED|1 EFDB,~D2de:|2 EFDB,~D2DE| \
